icons/CS.svg

<svg xmlns="http://www.w3.org/2000/svg" width="256" height="256" fill="none" viewBox="0 0 256 256"><rect width="256" height="256" fill="#953CAD" rx="60"/><path fill="#fff" d="M195.436 100.668V114.142H208.91V100.668H215.647V114.142H229.12V120.879H215.647V134.352H229.12V141.089H215.647V154.563H208.91V141.089H195.436V154.563H188.699V141.089H175.226V134.352H188.699V120.879H175.226V114.142H188.699V100.668H195.436ZM208.91 120.879H195.436V134.352H208.91V120.879Z"/><path fill="#fff" d="M122.001 33C157.144 33 187.828 52.0863 204.262 80.4561L204.102 80.183L162.753 103.991C154.607 90.1977 139.672 80.8892 122.54 80.6975L122.001 80.6945C95.875 80.6945 74.6945 101.874 74.6945 127.999C74.6945 136.543 76.9723 144.552 80.9335 151.469C89.0876 165.704 104.416 175.306 122.001 175.306C139.693 175.306 155.109 165.582 163.222 151.195L163.025 151.54L204.311 175.458C188.057 203.588 157.794 222.615 123.059 222.994L122.001 223C86.746 223 55.9753 203.796 39.582 175.276C31.5791 161.353 27 145.212 27 127.999C27 75.5334 69.5323 33 122.001 33Z"/></svg>

<svg fill="#953CAD" viewBox="0 0 256 256" xmlns="http://www.w3.org/2000/svg">
<rect width="256" height="256" rx="60"/>
<path d="m195.44 100.67v53.895h-6.737v-13.474h-13.473v-26.947h13.473v6.737h6.737zm13.474 20.211h-13.474v13.473h13.474v-13.473z" fill="#fff"/>
<path d="m122 33c35.143 0 65.827 19.086 82.261 47.456l-41.509 23.535c-8.146-13.793-23.081-23.102-40.213-23.294-26.665-3e-3 -47.846 21.176-47.846 47.302 0 8.544 2.2778 16.553 6.239 23.47 8.1541 14.235 23.482 23.837 41.068 23.837 17.692 0 33.108-9.724 41.221-24.111l41.089 24.263c-16.254 28.13-46.517 47.157-81.252 47.536-36.313 6e-3 -67.084-19.198-83.477-47.718-8.0029-13.923-12.582-30.064-12.582-47.277 0-52.466 42.532-94.999 95.001-94.999z" fill="#fff"/>
</svg>
